resources/svg/joystick-o.svg

<svg xmlns="http://www.w3.org/2000/svg" viewBox="0 0 15 15" fill="none"><path d="M1.5 10.5V10C1.22386 10 1 10.2239 1 10.5H1.5ZM13.5 10.5H14C14 10.2239 13.7761 10 13.5 10V10.5ZM13.5 14.5V15C13.7761 15 14 14.7761 14 14.5H13.5ZM1.5 14.5H1C1 14.7761 1.22386 15 1.5 15V14.5ZM1.5 11H13.5V10H1.5V11ZM13 10.5V14.5H14V10.5H13ZM13.5 14H1.5V15H13.5V14ZM2 14.5V10.5H1V14.5H2ZM8 10.5V6.5H7V10.5H8ZM7.5 0C5.567 0 4 1.567 4 3.5H5C5 2.11929 6.11929 1 7.5 1V0ZM11 3.5C11 1.567 9.433 0 7.5 0V1C8.88071 1 10 2.11929 10 3.5H11ZM7.5 7C9.433 7 11 5.433 11 3.5H10C10 4.88071 8.88071 6 7.5 6V7ZM7.5 6C6.11929 6 5 4.88071 5 3.5H4C4 5.433 5.567 7 7.5 7V6ZM3 9H5V8H3V9Z" fill="black"/></svg>

<svg xmlns="http://www.w3.org/2000/svg" viewBox="0 0 15 15" fill="none"><path d="M1.5 10.5V10a.5.5 0 00-.5.5h.5zm12 0h.5a.5.5 0 00-.5-.5v.5zm0 4v.5a.5.5 0 00.5-.5h-.5zm-12 0H1a.5.5 0 00.5.5v-.5zm0-3.5h12v-1h-12v1zm11.5-.5v4h1v-4h-1zm.5 3.5h-12v1h12v-1zM2 14.5v-4H1v4h1zm6-4v-4H7v4h1zM7.5 0A3.5 3.5 0 004 3.5h1A2.5 2.5 0 017.5 1V0zM11 3.5A3.5 3.5 0 007.5 0v1A2.5 2.5 0 0110 3.5h1zM7.5 7A3.5 3.5 0 0011 3.5h-1A2.5 2.5 0 017.5 6v1zm0-1A2.5 2.5 0 015 3.5H4A3.5 3.5 0 007.5 7V6zM3 9h2V8H3v1z" fill="currentColor"/></svg>
